X: 542
T: Guijie shaoshu
L: 1/8
M: 2/4
K: Eb
e> c B c/ c/ [I:setbarnb 1]| 
e4 | 
e> f g g | 
b4 | 
e G f f/ g/ | 
g B/ c/e2 | 
e g f f/ c/ | 
B4 |]

@@@ Tune index: 9416
